X:882
T:Xiraldilla (CT 389)
R:Xiraldilla
C:Tradicional
S:Msica Tradicional Asturiana, (C) Tello & Tito. Asturies, 2001.
S:http://pagina.de/MusTradAst <telloytito@asturies.org>
N:Xiraldilla, transcrita en Uviu.
N:Las sealadas con los nmeros CT 387, CT 388 y CT 389, son variantes de una misma meloda.
N:Estas xiraldillas son, ya de antiguo, muy corrientes en las romeras que se celebran en el concejo de Uviu.
A:Asturies
O:Uviu
Z:Cancioneru de Torner 389
M:3/8
L:1/8
Q:3/8=88
K:G
|dgg|ggg|(g2 f)|e f2|f2 e|d e2|e2 d-|d2 z|
eee|fgf|e2 d|e f2|g2 f|e d2|c2 B-|B2 z||
W:A mi me gusta el mandil
W:que va por la carretera,
W:pero ms me gusta el ama
W:con el salero que lleva.
W:
